X: 1
T:Fisher's Hornpipe
R:Hornpipe
M:4/4
L:1/8
K:A
aecA B2df | ecBA GBED | CEAc EAce | aedc c2B2 |\
aecA B2df | ecBA GBED | CEAc dBAG | A2A>A A4::\
GBEd cAec | B2Bc B2Bc | defg aecA | E2E>E E4 |\
cecA ecBA | fdbg agfe | dBGE FAGB | A2A>A A4:|
